packages/core/src/svgs/tokens/branded/ZLK.svg

<svg width="24" height="24" viewBox="0 0 24 24" fill="none" xmlns="http://www.w3.org/2000/svg">
<path d="M3.35205 7.22607C3.35205 7.0315 3.45475 6.84772 3.62229 6.75584L11.5568 2.07515C11.6385 2.02689 11.7314 2.00099 11.8263 2.00003C11.9211 1.99908 12.0146 2.02313 12.0973 2.06974L20.3723 6.75584C20.4565 6.80321 20.5266 6.87234 20.575 6.95599C20.6236 7.03965 20.6487 7.13478 20.6479 7.23148V16.7658C20.6487 16.8626 20.6236 16.9576 20.575 17.0413C20.5266 17.125 20.4565 17.1941 20.3723 17.2414L12.0919 21.9275C12.0097 21.975 11.9165 22 11.8216 22C11.7268 22 11.6336 21.975 11.5514 21.9275L3.62229 17.2414C3.45475 17.1442 3.35205 16.9658 3.35205 16.7712V7.22607ZM5.77347 8.23679C5.61132 8.33949 5.51402 8.51245 5.51402 8.70162V15.4686C5.51402 15.6632 5.61672 15.8415 5.77887 15.9389L11.5459 19.398C11.6294 19.4475 11.7246 19.4737 11.8216 19.4737C11.9186 19.4737 12.0138 19.4475 12.0973 19.398L14.6377 17.8739C14.9889 17.6576 14.9835 17.1442 14.6322 16.9333L9.56768 13.9606C9.40019 13.858 9.29749 13.6795 9.29749 13.4851V7.03149C9.29806 6.93528 9.27292 6.84067 9.22471 6.75742C9.17648 6.67416 9.10691 6.60529 9.02316 6.55792C8.93944 6.51054 8.84456 6.48637 8.74837 6.48791C8.65217 6.48945 8.55813 6.51664 8.47595 6.56667L5.77347 8.2422V8.23679Z" fill="black"/>
</svg>

<svg xmlns="http://www.w3.org/2000/svg" width="24" height="24" fill="none" viewBox="0 0 24 24">
    <path fill="#000" d="M3.352 7.226c0-.194.103-.378.27-.47l7.935-4.68a.54.54 0 0 1 .54-.006l8.275 4.686a.54.54 0 0 1 .276.475v9.535a.54.54 0 0 1-.276.475l-8.28 4.686a.54.54 0 0 1-.54 0l-7.93-4.686a.54.54 0 0 1-.27-.47zm2.421 1.01a.55.55 0 0 0-.259.466v6.767a.55.55 0 0 0 .265.47l5.767 3.459a.54.54 0 0 0 .551 0l2.54-1.524a.552.552 0 0 0-.005-.94L9.568 13.96a.56.56 0 0 1-.27-.476V7.031a.54.54 0 0 0-.822-.464L5.773 8.242z"/>
</svg>
